src/images/icons/medium-icon.svg

<svg width="50" height="50" viewBox="0 0 50 50" fill="none" xmlns="http://www.w3.org/2000/svg">
<path d="M10.1728 18.7123C10.2166 18.282 10.049 17.8516 9.72864 17.5597L6.44427 13.5909V13H16.6544L24.5487 30.3415L31.489 13H41.2258V13.5909L38.4148 16.2902C38.1745 16.4726 38.0507 16.779 38.1017 17.0781V36.9218C38.0507 37.2209 38.1745 37.5273 38.4148 37.7098L41.1603 40.409V41H27.3452V40.409L30.1928 37.6441C30.4695 37.3668 30.4695 37.2792 30.4695 36.8561V20.8207L22.5533 40.9489H21.4828L12.2776 20.8207V34.3101C12.1974 34.8791 12.3867 35.4483 12.7874 35.8567L16.4869 40.3507V40.9417H6V40.3579L9.69958 35.8567C10.0928 35.4482 10.2748 34.8718 10.1728 34.3101V18.7123Z" fill="#222222"/>
</svg>

<?xml version="1.0" encoding="UTF-8"?>
<svg id="Layer_1" xmlns="http://www.w3.org/2000/svg" version="1.1" viewBox="0 0 50 50">
  <!-- Generator: Adobe Illustrator 30.2.1, SVG Export Plug-In . SVG Version: 2.1.1 Build 1)  -->
  <defs>
    <style>
      .st0 {
        fill: #e3e3e3;
      }
    </style>
  </defs>
  <path class="st0" d="M10.17,18.71c.04-.43-.12-.86-.44-1.15l-3.28-3.97v-.59h10.21l7.89,17.34,6.94-17.34h9.74v.59l-2.81,2.7c-.24.18-.36.49-.31.79v19.84c-.05.3.07.61.31.79l2.75,2.7v.59h-13.82v-.59l2.85-2.76c.28-.28.28-.36.28-.79v-16.04l-7.92,20.13h-1.07l-9.21-20.13v13.49c-.08.57.11,1.14.51,1.55l3.7,4.49v.59H6v-.58l3.7-4.5c.39-.41.58-.98.47-1.55v-15.6Z"/>
</svg>
